!!!!SEGMENT: pl-cz--iii-487--004_went-johann-nepomuk--partita-es-rondo.krn
!!!cenid: 18xx:2485
!!!COM: Went, Johann Nepomuk
!!!COM-rismid: pe30003326
!!!CDT: 1745-1801
!!!CNT: Czech
!!!OTL: Partita Es - Rondo
!!!PDT:
!!!AGN: Secular; Partita
!!!SMS-siglum: PL-CZ
!!!SMS-shelfmark: III-487
!!!SMS-shelfwork: 001-004 M
!!!SMS-variant:
!!!SMS-altvar:
!!!NIFC-rismid: 300000863
!!!URL-scan: http://repozytorium.nifc.pl/skany/pl-cz-nut--iii-487
!!!ONB-nifc: UWAGA: części Partiry: 1. Allegro assai, 2. Andante, 3. Menuetto, 4. Presto
**kern	**dynam	**kern	**dynam	**kern	**dynam	**kern	**dynam	**kern	**dynam
*part5	*part5	*part4	*part4	*part3	*part3	*part2	*part2	*part1	*part1
*staff5	*	*staff4	*	*staff3	*	*staff2	*	*staff1	*
*I"/: Corno Secondo :/ in Dis	*	*I"/: Corno Primo :/ in Dis:	*	*I"/: Fagotti Due :/	*	*I"/: Clarinetto Secondo :/	*	*I"/: Clarinetto Primo :/	*
*I'cor 2 in Dis	*	*I'cor 1 in Dis	*	*I'fag	*	*I'cl 2	*	*I'cl 1	*
*>[A,B,B,C]	*>[A,B,B,C]	*>[A,B,B,C]	*>[A,B,B,C]	*>[A,B,B,C]	*>[A,B,B,C]	*>[A,B,B,C]	*>[A,B,B,C]	*>[A,B,B,C]	*>[A,B,B,C]
*>A	*>A	*>A	*>A	*>A	*>A	*>A	*>A	*>A	*>A
*clefG2	*	*clefG2	*	*clefF4	*	*clefG2	*	*clefG2	*
*ITrd5c9	*	*ITrd5c9	*	*	*	*ITrd1c2	*	*ITrd1c2	*
*k[b-e-a-]	*	*k[b-e-a-]	*	*k[b-e-a-]	*	*k[b-e-a-]	*	*k[b-e-a-]	*
*M2/2	*	*M2/2	*	*M2/2	*	*M2/2	*	*M2/2	*
*met(c|)	*	*met(c|)	*	*met(c|)	*	*met(c|)	*	*met(c|)	*
=1	=1	=1	=1	=1	=1	=1	=1	=1	=1
!LO:TX:a:t=4	!	!LO:TX:a:B:t=Presto\nRondo	!	!	!	!LO:TX:a:B:t=/&colon; Presto Rondo &colon;/	!	!	!
!LO:TX:a:B:t=Presto\nRondo	!	!LO:TX:a:t=4	!	!LO:TX:a:B:t=/&colon; Presto Rondo &colon;/	!LO:DY:rj	!LO:TX:a:t=4	!	!LO:TX:a:B:t=/&colon; Presto Rondo &colon;/	!
00r	.	00r	.	4E-\	p	00r	.	8gg\L	p
.	.	.	.	.	.	.	.	8bb-\	.
.	.	.	.	4r	.	.	.	8ee-\	.
.	.	.	.	.	.	.	.	8gg\J	.
.	.	.	.	4A-\	.	.	.	8ff\L	.
.	.	.	.	.	.	.	.	8aa-\	.
.	.	.	.	4r	.	.	.	8ff\	.
.	.	.	.	.	.	.	.	8ee-\J	.
=2	=2	=2	=2	=2	=2	=2	=2	=2	=2
.	.	.	.	4B-\	.	.	.	4dd\	.
.	.	.	.	4B-\	.	.	.	8ff\L	.
.	.	.	.	.	.	.	.	8ee-\J	.
.	.	.	.	.	.	.	.	16qqee-/	.
.	.	.	.	4BB-/	.	.	.	(4dd\	.
.	.	.	.	4D/	.	.	.	8cc\L)	.
.	.	.	.	.	.	.	.	8b-\J	.
=3	=3	=3	=3	=3	=3	=3	=3	=3	=3
*	*	*	*	*2\right	*	*	*	*	*
.	.	.	.	2E-\	.	.	.	8ee-\L	.
.	.	.	.	.	.	.	.	8ff\	.
.	.	.	.	.	.	.	.	8gg\	.
.	.	.	.	.	.	.	.	8ee-\J	.
.	.	.	.	2AA-/	.	.	.	8cc\L	.
.	.	.	.	.	.	.	.	8eeX\	.
.	.	.	.	.	.	.	.	8ff\	.
.	.	.	.	.	.	.	.	8gg\J	.
=4	=4	=4	=4	=4	=4	=4	=4	=4	=4
.	.	.	.	4AA-/	.	.	.	8aa-\L	.
.	.	.	.	.	.	.	.	8gg\	.
.	.	.	.	4AA-/	.	.	.	8ff\	.
.	.	.	.	.	.	.	.	8ee-X\J	.
.	.	.	.	4BB-/	.	.	.	4dd\	.
.	.	.	.	4r	.	.	.	4r	.
=5	=5	=5	=5	=5	=5	=5	=5	=5	=5
*	*	*2\right	*	*	*	*	*	*	*
!	!	!	!	!	!	!	!LO:DY:t=f.	!	!LO:DY:t=for
2G/	.	2e-\	.	4E-\	.	8g/L	f	8gg\L	f
.	.	.	.	.	.	8b-/	.	8bb-\	.
.	.	.	.	4E-\	.	8e-/	.	8ee-\	.
.	.	.	.	.	.	8g/J	.	8gg\J	.
!	!	!	!	!	!	!	!	!LO:LB:g=original	!
2r	.	4f\	.	4A-\	.	8f/L	.	(8ff\L	.
.	.	.	.	.	.	8a-/	.	8aa-\	.
.	.	4f\	.	4A-\	.	8f/	.	8ff\	.
.	.	.	.	.	.	8e-/J	.	8ee-\J)	.
=6	=6	=6	=6	=6	=6	=6	=6	=6	=6
4B-/	.	4f\	.	4B-\	.	4d/	.	4dd\	.
4B-/	.	4f\	.	4B-\	.	8f/L	.	8ff\L	.
.	.	.	.	.	.	8e-/J	.	8ee-\J	.
.	.	.	.	.	.	16qqe-/	.	16qqee-/	.
!	!	!	!	!LO:LB:g=original	!	!	!	!	!
2B-/	.	2f\	.	4BB-/	.	4d/	.	4dd\	.
.	.	.	.	4D/	.	8c/L	.	(8cc\L	.
.	.	.	.	.	.	8B-/J	.	8b-\J)	.
=7	=7	=7	=7	=7	=7	=7	=7	=7	=7
2G/	.	2e-\	.	4E-\	.	8e-/L	.	8ee-\L	.
.	.	.	.	.	.	8f/	.	8ff\	.
.	.	.	.	4E-\	.	8g/	.	8gg\	.
.	.	.	.	.	.	8e-/J	.	8ee-\J	.
2r	.	4f\	.	4A-\	.	8c/L	.	8cc\L	.
.	.	.	.	.	.	8f/	.	8ff\	.
.	.	4f\	.	4A-\	.	8a-/	.	8aa-\	.
.	.	.	.	.	.	8g/J	.	8ff\J	.
=8	=8	=8	=8	=8	=8	=8	=8	=8	=8
4e-\	.	4g\	.	4B-\	.	4g/	.	4ee-\	.
4B-/	.	4f\	.	4BB-/	.	4a-/	.	4dd\	.
4G/	.	4e-\	.	4E-\	.	4g/	.	4ee-\	.
4r	.	4r	.	4r	.	4r	.	4r	.
!	!	!	!	!	!	!LO:LB:g=original	!	!	!
=9||	=9||	=9||	=9||	=9||	=9||	=9||	=9||	=9||	=9||
.	.	.	.	.	.	16qqdd/	.	.	.
*	*	*	*	*	*	*2\right	*	*	*
!LO:TX:a:t=1	!	!LO:TX:a:t=1	!	!	!	!	!	!	!
1r	.	1r	.	4.e-\	.	2cc\	.	4.gg\	p
.	.	.	.	8f\	.	.	.	8aa-\	.
.	.	.	.	8e-\L	.	4cc\	.	4gg\	.
.	.	.	.	8e-\	.	.	.	.	.
.	.	.	.	8e-\	.	4cc\	.	4gg\	.
.	.	.	.	8e-\J	.	.	.	.	.
=10	=10	=10	=10	=10	=10	=10	=10	=10	=10
!	!	!	!	!	!LO:DY:t=for	!	!	!	!
2rg	.	2rg	.	4f\	f	4bX\	.	4aa-\	.
.	.	.	.	4e-\	.	4cc\	.	4gg\	.
!	!	!	!	!	!	!	!	!	!LO:DY:t=for
4G/	.	4g\	.	4d\	.	8d/L	.	8dd\L	f
.	.	.	.	.	.	8e-/	.	8ee-\	.
4G/	.	4g\	.	4G\	.	8f/	.	8ff\	.
.	.	.	.	.	.	8g/J	.	8gg\J	.
!	!	!LO:LB:g=original	!	!LO:LB:g=original	!	!	!	!LO:LB:g=original	!
=11	=11	=11	=11	=11	=11	=11	=11	=11	=11
2G/	.	2g\	.	2c\	.	4e-/	.	4ee-\	p
.	.	.	.	.	.	4c/	.	4cc\	.
2rg	.	2rg	.	4d\	.	4b-X\	.	4ff\	.
.	.	.	.	4d\	.	4b-\	.	4ff\	.
=12	=12	=12	=12	=12	=12	=12	=12	=12	=12
2rg	.	2rg	.	4e-\	.	4a\	.	4gg\	.
!	!	!	!	!	!LO:DY:t=for	!	!	!	!
.	.	.	.	4d\	f	4b-\	.	4ff\	.
4f\	.	4f\	.	4An\	.	8c/L	.	8cc\L	.
.	.	.	.	.	.	8d/	.	8dd\	.
4f\	.	4f\	.	4F\	.	8e-/	.	8ee-\	.
.	.	.	.	.	.	8f/J	.	8ff\J	.
!LO:LB:g=original	!	!	!	!	!	!	!	!	!
=13	=13	=13	=13	=13	=13	=13	=13	=13	=13
2B-/	.	2f\	.	2B-\	.	4d/	.	4dd\	.
.	.	.	.	.	.	4B-/	.	4b-\	.
2B-/	.	2f\	.	2BB-/	.	2dd\	.	8bb-\L	f
.	.	.	.	.	.	.	.	8aa\	p
.	.	.	.	.	.	.	.	8gg\	.
.	.	.	.	.	.	.	.	8ff\J	.
=14	=14	=14	=14	=14	=14	=14	=14	=14	=14
2B-/	.	2f\	.	1BB-	.	2dd\	.	8bb-\L	f
.	.	.	.	.	.	.	.	8aa\	p
.	.	.	.	.	.	.	.	8gg\	.
.	.	.	.	.	.	.	.	8ff\J	.
2B-/	.	2f\	.	.	.	2dd\	.	(8bb-\L	f
.	.	.	.	.	.	.	.	8aa\)	p
.	.	.	.	.	.	.	.	8gg'\	.
.	.	.	.	.	.	.	.	8ff'\J	.
!	!	!	!	!	!	!LO:LB:g=original	!	!	!
=15	=15	=15	=15	=15	=15	=15	=15	=15	=15
4B-/	.	4f\	.	4BB-/	.	4cc\	.	4bb-\	.
4r	.	4r	.	4r	.	4r	.	4r	.
4e-\	.	4e-\	.	4E-\	.	4b-\	.	4gg\	.
4r	.	4r	.	4r	.	4r	.	4r	.
=16	=16	=16	=16	=16	=16	=16	=16	=16	=16
4f\	.	4f\	.	4F\	.	4dd\	.	4ff\	.
4r	.	4r	.	4r	.	4r	.	4r	.
!	!	!	!	!	!	!	!	!LO:LB:g=original	!
4f\	.	4f\	.	2rC	.	4e-/	.	4a\	.
4r	.	4r	.	.	.	4r	.	4r	.
=17	=17	=17	=17	=17	=17	=17	=17	=17	=17
*	*	*	*	*	*	*	*	*2\right	*
1B-	.	1f	.	1BB-	.	2.d/	.	2.b-\	.
.	.	.	.	.	.	4f/	.	4dd\	.
!	!	!	!	!LO:LB:g=original	!	!	!	!	!
=18	=18	=18	=18	=18	=18	=18	=18	=18	=18
!	!	!	!	!	!LO:DY:rj	!	!	!	!
2B-/	.	2f\	.	1BBB-	p	(4d/	.	4b-\	.
.	.	.	.	.	.	4f/)	.	4dd\	.
2B-/	.	2f\	.	.	.	(4d/	.	4b-\	.
.	.	.	.	.	.	4f/)	.	4dd\	.
=19	=19	=19	=19	=19	=19	=19	=19	=19	=19
!	!	!	!	!	!	!	!	!	!LO:HP:t=Cresc
1B-	.	2f\	.	1BBB-	.	2d/	.	2b-\	<
.	.	2f\	.	.	.	2d/	.	2b-\	.
!	!	!LO:LB:g=original	!	!	!	!	!	!	!
=20	=20	=20	=20	=20	=20	=20	=20	=20	=20
2B-/	.	2f\	.	1BBB-	.	2d/	.	2b-\	.
2B-/	.	2f\	.	.	.	2d/	.	2b-\	.
=21	=21	=21	=21	=21	=21	=21	=21	=21	=21
2B-/	.	2f\	.	2BBB-/	.	2d/	.	2b-\	.
2rg;	.	2r;	.	2rC;	.	2rg;	.	2rg;	.
!	!	!	!	!	!	!LO:LB:g=original	!	!	!
=22	=22	=22	=22	=22	=22	=22	=22	=22	=22
2B-/	.	2f\	.	2BB-/	.	2d/	.	2b-\	.
2rg;	.	2r;	.	2rC;	.	2rg;	.	2rg;	.
!LO:LB:g=original	!	!	!	!	!	!	!	!	!
=23	=23	=23	=23	=23	=23	=23	=23	=23	=23
2B-/	.	2f\	.	2BB-/	.	2d/	.	2b-\	.
2rg;	.	2r;	.	2rC;	.	2rg;	.	2rg;	.
!	!	!	!	!	!	!	!	!LO:LB:g=original	!
=24	=24	=24	=24	=24	=24	=24	=24	=24	=24
!	!	!LO:TX:a:t=4	!	!	!	!LO:TX:a:t=4	!	!	!
00r	.	00r	.	4E-\	.	00r	.	(8gg\L	.
.	.	.	.	.	.	.	.	8bb-\)	.
.	.	.	.	4r	.	.	.	(8ee-\	.
.	.	.	.	.	.	.	.	8gg\J)	.
.	.	.	.	4A-\	.	.	.	(8ff\L	.
.	.	.	.	.	.	.	.	8aa-\	.
.	.	.	.	4r	.	.	.	8ff\	.
.	.	.	.	.	.	.	.	8ee-\J)	.
=25	=25	=25	=25	=25	=25	=25	=25	=25	=25
.	.	.	.	4B-\	.	.	.	4dd\	.
.	.	.	.	4B-\	.	.	.	(8ff\L	.
.	.	.	.	.	.	.	.	8ee-\J)	.
.	.	.	.	.	.	.	.	16qqee-/	.
!	!	!	!	!LO:LB:g=original	!	!	!	!	!
.	.	.	.	4BB-/	.	.	.	4dd\	.
.	.	.	.	4D/	.	.	.	8cc\L	.
.	.	.	.	.	.	.	.	8b-\J	.
=26	=26	=26	=26	=26	=26	=26	=26	=26	=26
.	.	.	.	2E-\	.	.	.	8ee-\L	.
.	.	.	.	.	.	.	.	8ff\	.
.	.	.	.	.	.	.	.	8gg\	.
.	.	.	.	.	.	.	.	8ff\J	.
.	.	.	.	2AA-/	.	.	.	8cc\L	.
.	.	.	.	.	.	.	.	8eeX\	.
.	.	.	.	.	.	.	.	8ff\	.
.	.	.	.	.	.	.	.	8gg\J	.
=27	=27	=27	=27	=27	=27	=27	=27	=27	=27
.	.	.	.	4AA-/	.	.	.	8aa-\L	.
.	.	.	.	.	.	.	.	8gg\	.
.	.	.	.	4AA-/	.	.	.	8ff\	.
.	.	.	.	.	.	.	.	8ee-X\J	.
.	.	.	.	4BB-/	.	.	.	4dd\	.
.	.	.	.	4r	.	.	.	4r	.
=28	=28	=28	=28	=28	=28	=28	=28	=28	=28
2G/	.	2e-\	.	4E-\	.	(8g/L	.	(8gg\L	.
.	.	.	.	.	.	8b-/)	.	8bb-\)	.
.	.	.	.	4E-\	.	(8e-/	.	(8ee-\	.
.	.	.	.	.	.	8g/J)	.	8gg\J)	.
!	!	!	!	!	!	!	!	!LO:LB:g=original	!
2rg	.	4f\	.	4A-\	.	(8f/L	.	8ff\L	.
.	.	.	.	.	.	8a-/)	.	8aa-\	.
.	.	4f\	.	4A-\	.	(8f/	.	8ff\	.
.	.	.	.	.	.	8e-/J)	.	8ee-\J	.
=29	=29	=29	=29	=29	=29	=29	=29	=29	=29
4B-/	.	4f\	.	4B-\	.	4d/	.	4dd\	.
4B-/	.	4f\	.	4B-\	.	8f/L	.	(8ff\L	.
.	.	.	.	.	.	8e-/J	.	8ee-\J)	.
.	.	.	.	.	.	16qqe-/	.	16qqee-/	.
2B-/	.	2f\	.	4BB-/	.	4d/	.	4dd\	.
.	.	.	.	4D/	.	8c/L	.	8cc\L	.
.	.	.	.	.	.	8B-/J	.	8b-\J	.
=30	=30	=30	=30	=30	=30	=30	=30	=30	=30
2G/	.	2e-\	.	4E-\	.	8e-/L	.	8ee-\L	.
.	.	.	.	.	.	8f/	.	8ff\	.
.	.	.	.	4E-\	.	8g/	.	8gg\	.
.	.	.	.	.	.	8e-/J	.	8ee-\J	.
!	!	!	!	!LO:LB:g=original	!	!	!	!	!
2rg	.	4f\	.	4A-\	.	8c/L	.	8cc\L	.
.	.	.	.	.	.	8f/	.	8ff\	.
.	.	4f\	.	4A-\	.	8a-/	.	8aa-\	.
.	.	.	.	.	.	8f/J	.	8ff\J	.
!	!	!	!	!	!	!LO:LB:g=original	!	!	!
=31	=31	=31	=31	=31	=31	=31	=31	=31	=31
4e-\	.	4g\	.	4B-\	.	4g/	.	4ee-\	.
4B-/	.	4f\	.	4BB-/	.	4a-/	.	4dd\	.
4G/	.	4e-\	.	4E-\	.	4g/	.	4ee-\	.
4r	.	4r	.	4r	.	4r	.	4r	.
!	!	!LO:LB:g=original	!	!	!	!	!	!	!
=32!|:	=32!|:	=32!|:	=32!|:	=32!|:	=32!|:	=32!|:	=32!|:	=32!|:	=32!|:
*>B	*>B	*>B	*>B	*>B	*>B	*>B	*>B	*>B	*>B
!LO:TUP:b:problem:klamra łukowa	!	!LO:TUP:a:problem:klamra łukowa	!LO:DY:rj	!	!LO:DY:rj	!	!	!	!
12E-/L	.	12e-\L	p	1EE-	p	(4g/	.	4ee-\	.
12E-/	.	12e-\	.	.	.	.	.	.	.
12E-/J	.	12e-\J	.	.	.	.	.	.	.
4E-/	.	4e-|\	.	.	.	4a-/	.	4ff\	.
!LO:TUP:b:problem:klamra łukowa	!	!LO:TUP:a:problem:klamra łukowa	!	!	!	!	!	!	!
12E-/L	.	12e-\L	.	.	.	4b-/	.	4aa-\	.
12E-/	.	12e-\	.	.	.	.	.	.	.
12E-/J	.	12e-\J	.	.	.	.	.	.	.
4E-/	.	4e-|\	.	.	.	4g/)	.	4ee-\	.
=33	=33	=33	=33	=33	=33	=33	=33	=33	=33
!LO:TUP:b:problem:klamra łukowa, łuczek zamiast numeru	!	!LO:TUP:a:problem:klamra łukowa	!	!	!	!	!	!	!
12E-/L	.	12e-\L	.	1EE-	.	(4cc\	.	4aa-\	.
12E-/	.	12e-\	.	.	.	.	.	.	.
12E-/J	.	12e-\J	.	.	.	.	.	.	.
4E-/	.	4e-\	.	.	.	4b-\	.	4gg\	.
!LO:LB:g=original	!	!	!	!	!	!	!	!	!
!LO:TUP:b:problem:klamra łukowa, łuczek zamiast numeru	!	!LO:TUP:a:problem:klamra łukowa	!	!	!	!	!	!	!
12E-/L	.	12e-\L	.	.	.	4a-\	.	4ff\	.
12E-/	.	12e-\	.	.	.	.	.	.	.
12E-/J	.	12e-\J	.	.	.	.	.	.	.
4E-/	.	4e-\	.	.	.	4g\)	.	4ee-\	.
=34	=34	=34	=34	=34	=34	=34	=34	=34	=34
!LO:TUP:b:problem:klamra łukowa	!	!LO:TUP:a:problem:klamra łukowa	!	!	!	!	!	!	!
12B-/L	.	12f\L	.	1EE-	.	4f/	.	4dd\	.
12B-/	.	12f\	.	.	.	.	.	.	.
12B-/J	.	12f\J	.	.	.	.	.	.	.
4B-/	.	4f\	.	.	.	4e-/	.	4cc\	.
!LO:TUP:b:problem:klamra łukowa	!	!LO:TUP:a:problem:klamra łukowa	!	!	!	!	!	!	!
12B-/L	.	12f\L	.	.	.	4f/	.	4dd\	.
12B-/	.	12f\	.	.	.	.	.	.	.
12B-/J	.	12f\J	.	.	.	.	.	.	.
!	!	!LO:TX:t=P:problem:podwójna kreska taktowa	!	!	!	!	!	!	!
4B-/	.	4f\	.	.	.	4d/	.	4b-\	.
=35	=35	=35	=35	=35	=35	=35	=35	=35	=35
4B-/	.	4e-\	.	4FF/	.	4g/	.	4ee-\	.
4E-/	.	4e-\	.	4E-\	.	4g/	.	4ee-\	.
4E-/	.	4e-\	.	4EE-/	.	4g/	.	4ee-\	.
4r	.	4r	.	4r	.	4r	.	4r	.
=36:|!	=36:|!	=36:|!	=36:|!	=36:|!	=36:|!	=36:|!	=36:|!	=36:|!	=36:|!
*>C	*>C	*>C	*>C	*>C	*>C	*>C	*>C	*>C	*>C
!LO:TUP:b:problem:klamra łukowa, łuczek zamiast numeru	!	!LO:TUP:a:problem:klamra łukowa	!	!	!	!	!	!	!
12B-/L	.	12b-\L	.	2B-\	.	(4d/	.	(4b-\	.
!	!	!	!LO:DY:rj	!	!	!	!	!	!
12B-/	.	12b-\	p	.	.	.	.	.	.
!	!	!	!	!	!	!	!LO:DY:a	!	!
12B-/J	.	12b-\J	.	.	.	.	p	.	.
4B-/	.	4b-\	.	.	.	4e-/	.	4cc\	.
!	!	!LO:LB:g=original	!	!	!	!	!	!	!
!LO:TUP:b:problem:klamra łukowa, łuczek zamiast numeru	!	!LO:TUP:a:problem:klamra łukowa	!	!LO:LB:g=original	!	!	!	!	!
12B-/L	.	12b-\L	.	2A-\	.	4f/	.	4dd\	.
12B-/	.	12b-\	.	.	.	.	.	.	.
12B-/J	.	12b-\J	.	.	.	.	.	.	.
4B-/	.	4b-\	.	.	.	4d/)	.	4b-\)	.
!	!	!	!	!	!	!LO:LB:g=original	!	!	!
=37	=37	=37	=37	=37	=37	=37	=37	=37	=37
!LO:TUP:b:problem:klamra łukowa, łuczek zamiast numeru	!	!LO:TUP:a:problem:klamra łukowa	!	!	!	!	!	!	!
12B-/L	.	12b-\L	.	2G\	.	(4g\	.	4ee-\	.
12B-/	.	12b-\	.	.	.	.	.	.	.
12B-/J	.	12b-\J	.	.	.	.	.	.	.
4B-/	.	4b-\	.	.	.	4a-\	.	4ff\	.
!LO:TUP:b:problem:klamra łukowa, łuczek zamiast numeru	!	!LO:TUP:a:problem:klamra łukowa	!	!	!	!	!	!	!
12B-/L	.	12b-\L	.	2E-\	.	4b-\	.	4gg\	.
12B-/	.	12b-\	.	.	.	.	.	.	.
12B-/J	.	12b-\J	.	.	.	.	.	.	.
4B-/	.	4b-\	.	.	.	4g\)	.	4ee-\	.
=38	=38	=38	=38	=38	=38	=38	=38	=38	=38
!LO:TUP:a:problem:klamra łukowa, łuczek zamiast numeru	!	!LO:TUP:a:problem:klamra łukowa, łuczek zamiast numeru	!	!	!	!	!	!	!
12f\L	.	12f\L	.	2F\	.	4a-\	.	4cc\	.
12f\	.	12f\	.	.	.	.	.	.	.
12f\J	.	12f\J	.	.	.	.	.	.	.
!LO:LB:g=original	!	!	!	!	!	!	!	!	!
4f\	.	4f\	.	.	.	4b-\	.	4dd\	.
!LO:TUP:a:problem:klamra łukowa	!	!LO:TUP:a:problem:klamra łukowa	!	!	!	!	!	!	!
12f\L	.	12f\L	.	2FF/	.	4cc\	.	4ee-\	.
12f\	.	12f\	.	.	.	.	.	.	.
12f\J	.	12f\J	.	.	.	.	.	.	.
4f\	.	4f\	.	.	.	4a-\	.	4cc\	.
=39	=39	=39	=39	=39	=39	=39	=39	=39	=39
!	!	!	!LO:DY:t=for	!	!	!	!	!	!LO:DY:t=for
4B-/	.	4f\	f	4BB-/	.	4b-'\	.	4dd|\	f
4B-/	.	4f\	.	4BB-/	.	4cc'\	.	4ee-|\	.
4B-/	.	4f\	.	4BB-/	.	4dd'\	.	4ff|\	.
4r	.	4r	.	4r	.	4r	.	4r	.
!	!	!	!	!	!	!	!	!LO:LB:g=original	!
=40	=40	=40	=40	=40	=40	=40	=40	=40	=40
!	!	!	!	!	!	!	!LO:DY:a	!	!
2B-/	p	1f	.	2B-\	.	(4d/	p	4b-\	.
.	.	.	.	.	.	4e-/	.	4cc\	.
2ryy	.	.	.	2A-\	.	4f/	.	4dd\	.
.	.	.	.	.	.	4d/)	.	4b-\	.
=41	=41	=41	=41	=41	=41	=41	=41	=41	=41
*2\right	*	*	*	*	*	*	*	*	*
2e-\	.	2g\	.	2G\	.	(4g\	.	4ee-\	.
.	.	.	.	.	.	4b-\	.	4ff\	.
2B-/	.	2f\	.	2rC	.	4ee-\	.	4gg\	.
.	.	.	.	.	.	4dd\)	.	4ff\	.
!	!	!LO:LB:g=original	!	!	!	!	!	!	!
=42	=42	=42	=42	=42	=42	=42	=42	=42	=42
2rg	.	2rg	.	2rC	.	4ee-\	.	4gg\	.
.	.	.	.	.	.	4dd\	.	4ff\	.
4r	.	4r	.	4r	.	4ee-\	.	4gg\	.
4f\	.	4f\	.	4F\	.	4cc\	.	4aa\	.
!	!	!	!	!LO:LB:g=original	!	!	!	!	!
=43	=43	=43	=43	=43	=43	=43	=43	=43	=43
4B-/	.	4f\	.	4BB-/	.	4dd\	.	4bb-;\	.
4r	.	4r	.	4r	.	4r	.	4aa\	.
2rg;	.	2rg;	.	2rC;	.	2rg	.	8bb-\L	.
.	.	.	.	.	.	.	.	8b-\J	.
.	.	.	.	.	.	.	.	4b-;\	.
!	!	!	!	!	!	!LO:LB:g=original	!	!	!
=44	=44	=44	=44	=44	=44	=44	=44	=44	=44
!LO:TX:a:t=4	!	!LO:TX:a:t=4	!	!	!	!LO:TX:a:t=4	!	!	!
00r	.	00r	.	4E-\	.	00r	.	(8gg\L	p
.	.	.	.	.	.	.	.	8bb-\)	.
.	.	.	.	4r	.	.	.	(8ee-\	.
.	.	.	.	.	.	.	.	8gg\J)	.
.	.	.	.	4A-\	.	.	.	(8ff\L	.
.	.	.	.	.	.	.	.	8aa-\)	.
.	.	.	.	4r	.	.	.	8ff'\	.
.	.	.	.	.	.	.	.	8ee-'\J	.
=45	=45	=45	=45	=45	=45	=45	=45	=45	=45
.	.	.	.	4B-\	.	.	.	4dd\	.
.	.	.	.	4B-\	.	.	.	(8ff\L	.
.	.	.	.	.	.	.	.	8ee-\J)	.
.	.	.	.	.	.	.	.	16qqee-/	.
.	.	.	.	4BB-/	.	.	.	4dd\	.
.	.	.	.	4D/	.	.	.	(8cc\L	.
.	.	.	.	.	.	.	.	8b-\J)	.
!	!	!	!	!	!	!	!	!LO:LB:g=original	!
=46	=46	=46	=46	=46	=46	=46	=46	=46	=46
.	.	.	.	2E-\	.	.	.	(8ee-\L	.
.	.	.	.	.	.	.	.	8ff\)	.
.	.	.	.	.	.	.	.	8gg'\	.
.	.	.	.	.	.	.	.	8ee-'\J	.
.	.	.	.	2AA-/	.	.	.	(8dd\L	.
.	.	.	.	.	.	.	.	8eeX\	.
.	.	.	.	.	.	.	.	8ff\	.
.	.	.	.	.	.	.	.	8gg\J)	.
=47	=47	=47	=47	=47	=47	=47	=47	=47	=47
.	.	.	.	4AA-/	.	.	.	8aa-\L	.
.	.	.	.	.	.	.	.	8gg\	.
.	.	.	.	4AA-/	.	.	.	8ff\	.
.	.	.	.	.	.	.	.	8ee-X\J	.
.	.	.	.	4BB-/	.	.	.	4dd\	.
.	.	.	.	4r	.	.	.	4r	.
!	!	!	!	!LO:LB:g=original	!	!	!	!	!
=48	=48	=48	=48	=48	=48	=48	=48	=48	=48
!	!	!	!LO:DY:rj	!	!	!	!	!	!LO:DY:t=for
2G/	.	2e-\	f	4E-\	.	8g/L	.	8gg\L	f
.	.	.	.	.	.	8b-/	.	8bb-\	.
.	.	.	.	4E-\	.	8e-/	.	8ee-\	.
.	.	.	.	.	.	8g/J	.	8gg\J	.
2rg	.	4f\	.	4A-\	.	8f/L	.	(8ff\L	.
.	.	.	.	.	.	8a-/	.	8aa-\)	.
.	.	4f\	.	4A-\	.	8f/	.	8ff'\	.
.	.	.	.	.	.	8e-/J	.	8ee-'\J	.
=49	=49	=49	=49	=49	=49	=49	=49	=49	=49
4B-/	.	4f\	.	4B-\	.	4d/	.	4dd\	.
4B-/	.	4f\	.	4B-\	.	8f/L	.	(8ff\L	.
.	.	.	.	.	.	8e-/J	.	8ee-\J)	.
.	.	.	.	.	.	16qqe-/	.	16qqdd/	.
2B-/	.	2f\	.	4BB-/	.	4d/	.	4dd\	.
.	.	.	.	4D/	.	8c/L	.	(8cc\L	.
.	.	.	.	.	.	8B-/J	.	8b-\J)	.
!LO:LB:g=original	!	!	!	!	!	!	!	!LO:LB:g=original	!
=50	=50	=50	=50	=50	=50	=50	=50	=50	=50
2G/	.	2e-\	.	4E-\	.	8c/L	.	8ee-\L	.
.	.	.	.	.	.	8d/	.	8ff\	.
.	.	.	.	4E-\	.	8e-/	.	8gg\	.
.	.	.	.	.	.	8c/J	.	8ff\J	.
2rg	.	4f\	.	4A-\	.	8c/L	.	8cc\L	.
.	.	.	.	.	.	8f/	.	8ff\	.
.	.	4f\	.	4A-\	.	8a-/	.	8aa-\	.
.	.	.	.	.	.	8f/J	.	8ff\J	.
=51	=51	=51	=51	=51	=51	=51	=51	=51	=51
4e-\	.	4g\	.	4B-\	.	4g/	.	4ee-\	.
4B-/	.	4f\	.	4BB-/	.	4a-/	.	4dd\	.
4G/	.	4e-\	.	4E-\	.	4g/	.	4ee-\	.
4r	.	4r	.	4r	.	4r	.	4r	.
!	!	!	!	!	!	!LO:LB:g=original	!	!	!
=52	=52	=52	=52	=52	=52	=52	=52	=52	=52
!LO:TX:a:t=1	!	!LO:TX:a:t=1	!	!	!	!	!	!	!
1r	.	1r	.	4.e-\	.	2cc\	.	4.gg\	.
.	.	.	.	8f\	.	.	.	8aa-\	.
.	.	.	.	4e-\	.	4cc\	.	4gg\	.
.	.	.	.	4e-\	.	4cc\	.	4gg\	.
!	!	!LO:LB:g=original	!	!LO:LB:g=original	!	!	!	!	!
=53	=53	=53	=53	=53	=53	=53	=53	=53	=53
2rg	.	2rg	.	4f\	.	4bX\	.	4aa-\	.
.	.	.	.	4e-\	.	4cc\	.	4gg\	.
4G/	.	4g\	.	4Bn\	.	(8d/L	.	8dd\L	.
.	.	.	.	.	.	8e-/	.	8ee-\	.
!	!	!	!	!	!	!	!	!	!LO:DY:t=for
4G/	.	4g\	.	4G\	.	8f/	.	8ff\	f
.	.	.	.	.	.	8g/J)	.	8gg\J	.
=54	=54	=54	=54	=54	=54	=54	=54	=54	=54
2G/	.	2g\	.	2c\	.	4e-/	.	4ee-\	.
.	.	.	.	.	.	4c/	.	4cc\	p
2rg	.	2rg	.	4d\	.	4b-X\	.	4ff\	.
.	.	.	.	4d\	.	4b-\	.	4ff\	.
!	!	!	!	!	!	!	!	!LO:LB:g=original	!
=55	=55	=55	=55	=55	=55	=55	=55	=55	=55
2rg	.	2rg	.	4e-\	.	4a\	.	4gg\	.
.	.	.	.	4d\	.	4b-\	.	4ff\	.
4f\	.	4f\	.	4An\	.	8c/L	.	8cc\L	.
.	.	.	.	.	.	8d/	.	8dd\	.
4f\	.	4f\	.	4F\	.	8e-/	.	8ee-\	.
.	.	.	.	.	.	8f/J	.	8ff\J	.
=56	=56	=56	=56	=56	=56	=56	=56	=56	=56
2B-/	.	2f\	.	2B-\	.	4d/	.	4dd\	.
.	.	.	.	.	.	4B-/	.	4b-\	.
2B-/	.	2f\	.	2BB-/	.	2cc\	.	8bb-\L	f
.	.	.	.	.	.	.	.	8aa\	p
.	.	.	.	.	.	.	.	8gg\	.
.	.	.	.	.	.	.	.	8ff\J	.
!	!	!	!	!	!	!LO:LB:g=original	!	!	!
=57	=57	=57	=57	=57	=57	=57	=57	=57	=57
2B-/	.	2f\	.	1BB-	.	2dd\	.	8bb-\L	.
!	!	!	!	!	!	!	!	!	!LO:DY:rj
.	.	.	.	.	.	.	.	8aa\	f
!	!	!	!	!	!	!	!	!	!LO:DY:rj
.	.	.	.	.	.	.	.	8gg\	p
.	.	.	.	.	.	.	.	8ff\J	.
2B-/	.	2f\	.	.	.	2dd\	.	8bb-\L	f
.	.	.	.	.	.	.	.	8aan\	p
.	.	.	.	.	.	.	.	8gg\	.
.	.	.	.	.	.	.	.	8ff\J	.
!LO:LB:g=original	!	!	!	!	!	!	!	!	!
=58	=58	=58	=58	=58	=58	=58	=58	=58	=58
4B-/	.	4f\	.	4BB-/	.	4cc\	.	4bb-\	.
4r	.	4r	.	4r	.	4r	.	4r	.
4e-\	.	4e-\	.	4E-\	.	4b-\	.	4gg\	.
4r	.	4r	.	4r	.	4r	.	4r	.
!	!	!	!	!LO:LB:g=original	!	!	!	!	!
=59	=59	=59	=59	=59	=59	=59	=59	=59	=59
4f\	.	4f\	.	4F\	.	4dd\	.	4ff\	.
4r	.	4r	.	4r	.	4r	.	4r	.
4f\	.	4f\	.	4FF/	.	4e-/	.	4a\	.
4r	.	4r	.	4r	.	4r	.	4r	.
!	!	!LO:LB:g=original	!	!	!	!	!	!LO:LB:g=original	!
=60	=60	=60	=60	=60	=60	=60	=60	=60	=60
!	!LO:DY:rj	!	!	!	!	!	!	!	!LO:DY:rj
1B-	p	1f	.	1BB-	.	2.d/	.	2.b-\	p
.	.	.	.	.	.	4g/	.	4dd\	.
=61	=61	=61	=61	=61	=61	=61	=61	=61	=61
2B-/	.	2f\	.	1BB-	.	4d/	.	4b-\	.
.	.	.	.	.	.	4f/	.	4dd\	.
2B-/	.	2f\	.	.	.	4d/	.	4b-\	.
.	.	.	.	.	.	4f/	.	4dd\	.
=62	=62	=62	=62	=62	=62	=62	=62	=62	=62
2B-/	.	2f\	.	1BB-	.	2d/	.	2b-\	.
2B-/	.	2f\	.	.	.	2d/	.	2b-\	.
!	!	!	!	!	!	!LO:LB:g=original	!	!	!
=63	=63	=63	=63	=63	=63	=63	=63	=63	=63
2B-/	.	2f\	.	1BBB-	.	2d/	.	2b-\	.
2B-/	.	2f\	.	.	.	2d/	.	2b-\	.
=64	=64	=64	=64	=64	=64	=64	=64	=64	=64
!	!	!	!	!	!	!	!	!	!LO:DY:t=for
2B-/	.	2f\	.	2BBB-/	.	2d/	.	2b-\	f
2rg;	.	2rg;	.	2rC;	.	2rg;	.	2r;	.
!LO:LB:g=original	!	!	!	!	!	!	!	!	!
=65	=65	=65	=65	=65	=65	=65	=65	=65	=65
!	!	!	!	!	!	!	!	!	!LO:DY:t=for
2B-/	.	2f\	.	2BB-/	.	2d/	.	2b-\	f
2rg;	.	2rg;	.	2rC;	.	2rg;	.	2r;	.
=66	=66	=66	=66	=66	=66	=66	=66	=66	=66
!	!	!	!	!	!	!	!	!	!LO:DY:t=for
2B-/	.	2f\	.	2BB-/	.	2d/	.	2b-\	f
2rg;	.	2rg;	.	2rC;	.	2rg;	.	2r;	.
!	!	!	!	!LO:LB:g=original	!	!	!	!LO:LB:g=original	!
=67	=67	=67	=67	=67	=67	=67	=67	=67	=67
!LO:TX:a:t=4	!	!LO:TX:a:t=4	!	!	!	!	!	!	!LO:DY:rj
00r	.	00r	.	4E-\	.	00r	.	(8gg\L	p
.	.	.	.	.	.	.	.	8bb-\)	.
.	.	.	.	4r	.	.	.	(8ee-\	.
.	.	.	.	.	.	.	.	8gg\J)	.
.	.	.	.	4G\	.	.	.	(8ff\L	.
.	.	.	.	.	.	.	.	8aa-\)	.
.	.	.	.	4r	.	.	.	8ff|\	.
.	.	.	.	.	.	.	.	8ee-|\J	.
=68	=68	=68	=68	=68	=68	=68	=68	=68	=68
.	.	.	.	4B-\	.	.	.	4dd\	.
.	.	.	.	4B-\	.	.	.	(8ff\L	.
.	.	.	.	.	.	.	.	8ee-\J)	.
.	.	.	.	.	.	.	.	16qqee-/	.
.	.	.	.	4BB-/	.	.	.	4dd\	.
.	.	.	.	4BB-/	.	.	.	(8cc\L	.
.	.	.	.	.	.	.	.	8b-\J)	.
=69	=69	=69	=69	=69	=69	=69	=69	=69	=69
.	.	.	.	2E-\	.	.	.	8ee-\L	.
.	.	.	.	.	.	.	.	8ff\	.
.	.	.	.	.	.	.	.	8gg\	.
.	.	.	.	.	.	.	.	8ff\J	.
.	.	.	.	2AA-/	.	.	.	8cc\L	.
.	.	.	.	.	.	.	.	8eeX\	.
.	.	.	.	.	.	.	.	8ff\	.
.	.	.	.	.	.	.	.	8gg\J	.
=70	=70	=70	=70	=70	=70	=70	=70	=70	=70
.	.	.	.	4AA-/	.	.	.	8aa-\L	.
.	.	.	.	.	.	.	.	8gg\	.
.	.	.	.	4AA-/	.	.	.	8ff\	.
.	.	.	.	.	.	.	.	8ee-X\J	.
.	.	.	.	4BB-/	.	.	.	4dd\	.
.	.	.	.	4r	.	.	.	4r	.
=71	=71	=71	=71	=71	=71	=71	=71	=71	=71
!	!	!	!LO:DY:t=for	!	!	!	!	!	!
2G/	.	2e-\	f	4E-\	.	(8g/L	.	(8gg\L	.
!	!	!	!	!	!	!	!	!	!LO:DY:t=for
.	.	.	.	.	.	8b-/)	.	8bb-\)	f
.	.	.	.	4E-\	.	(8e-/	.	(8ee-\	.
.	.	.	.	.	.	8g/J)	.	8gg\J)	.
!	!	!	!	!	!	!	!	!LO:LB:g=original	!
2rg	.	4f\	.	4A-\	.	(8f/L	.	(8ff\L	.
.	.	.	.	.	.	8a-/)	.	8aa-\)	.
.	.	4f\	.	4A-\	.	(8g/	.	8gg'\	.
.	.	.	.	.	.	8f/J)	.	8ff'\J	.
!	!	!LO:LB:g=original	!	!	!	!	!	!	!
=72	=72	=72	=72	=72	=72	=72	=72	=72	=72
4B-/	.	4f\	.	4B-\	.	4d/	.	4dd\	.
4B-/	.	4f\	.	4B-\	.	(8f/L	.	8ff\L	.
.	.	.	.	.	.	8e-/J)	.	8ee-\J	.
!	!	!	!	!	!	!LO:LB:g=original	!	!	!
.	.	.	.	.	.	16qqe-/	.	16qqee-/	.
2B-/	.	2f\	.	4BB-/	.	4d/	.	4dd\	.
.	.	.	.	4D/	.	8c/L	.	8cc\L	.
.	.	.	.	.	.	8B-/J	.	8b-\J	.
!	!	!	!	!LO:LB:g=original	!	!	!	!	!
=73	=73	=73	=73	=73	=73	=73	=73	=73	=73
2G/	.	2e-\	.	4E-\	.	(8e-/L	.	8ee-\L	.
.	.	.	.	.	.	8f/	.	8ff\	.
.	.	.	.	4E-\	.	8g/	.	8gg\	.
.	.	.	.	.	.	8e-/J)	.	8ff\J	.
2rg	.	4f\	.	4A-\	.	(8c/L	.	8cc\L	.
.	.	.	.	.	.	8f/	.	8ff\	.
.	.	4f\	.	4A-\	.	8a-/	.	8aa-\	.
.	.	.	.	.	.	8f/J)	.	8ff\J	.
=74	=74	=74	=74	=74	=74	=74	=74	=74	=74
!	!	!	!	!	!	!	!LO:DY:rj	!	!
1E-	p	1e-	pp	2E-\	.	2g/	p	2ee-\	.
.	.	.	.	2G\	.	2b-/	.	2dd-X\	.
=75	=75	=75	=75	=75	=75	=75	=75	=75	=75
1E-	.	1e-	.	2A-\	.	2e-/	.	2b-\	.
.	.	.	.	2F\	.	2d/	.	2g\	.
=76	=76	=76	=76	=76	=76	=76	=76	=76	=76
1E-	.	1e-	.	1E-	.	2e-/	.	2g/	.
.	.	.	.	.	.	2c/	.	2a-/	.
=77	=77	=77	=77	=77	=77	=77	=77	=77	=77
1E-	.	1e-	.	1EE-	.	2B-/	.	2g/	pp
.	.	.	.	.	.	2c/	.	2a-/	.
!	!	!	!	!	!	!LO:LB:g=original	!	!LO:LB:g=original	!
=78	=78	=78	=78	=78	=78	=78	=78	=78	=78
2E-/	.	2e-\	.	2EE-/	.	2B-/	.	2g/	.
2rg	.	2rg	.	2rC	.	2rg	.	2rg	.
==	==	==	==	==	==	==	==	==	==
*-	*-	*-	*-	*-	*-	*-	*-	*-	*-
!!!system-decoration: [(s1,s2,s3)][(s4,s5)]
!!!RDF**kern: > = above
!!!RDF**kern: < = below
!!!RDF**kern: | = vertical stroke
!!!ENC: Andrzej Kubiczek
!!!END: 2021-06-30
!!!ENC: Tomasz Grochalski
!!!END: 2021-06-18
